image/logo/social_icon_telegram.svg

<svg width="48" height="48" viewBox="0 0 48 48" fill="none" xmlns="http://www.w3.org/2000/svg">
<path d="M24 14C29.5228 14 34 18.4772 34 24C34 29.5228 29.5228 34 24 34C18.4772 34 14 29.5228 14 24C14 18.4772 18.4772 14 24 14ZM28.4415 20C28.0606 20.0068 27.4761 20.2074 24.6631 21.3625C23.678 21.7671 21.709 22.6044 18.7562 23.8745C18.2767 24.0627 18.0255 24.2469 18.0027 24.427C17.9588 24.7727 18.4629 24.8803 19.0972 25.0839C19.6144 25.2498 20.3101 25.444 20.6717 25.4517C20.9998 25.4587 21.3659 25.3252 21.7702 25.0512C24.5291 23.2125 25.9532 22.2832 26.0426 22.2632C26.1057 22.2491 26.1931 22.2313 26.2523 22.2833C26.3115 22.3352 26.3057 22.4336 26.2995 22.4601C26.2493 22.6712 23.6576 24.9985 23.5085 25.1514L23.437 25.2233C22.8874 25.7661 22.332 26.1205 23.2903 26.744C24.1557 27.307 24.6593 27.6661 25.5508 28.2431C26.1205 28.6118 26.5671 29.049 27.1553 28.9955C27.426 28.971 27.7056 28.7197 27.8476 27.9703C28.1831 26.1993 28.8427 22.3621 28.9951 20.7809C29.0085 20.6423 28.9917 20.465 28.9782 20.3872C28.9647 20.3094 28.9365 20.1985 28.834 20.1164C28.7127 20.0192 28.5253 19.9987 28.4415 20Z" fill="white"/>
</svg>

<svg xmlns="http://www.w3.org/2000/svg" width="48" height="48" fill="none"><path fill="#fff" d="M24 14c5.523 0 10 4.477 10 10s-4.477 10-10 10-10-4.477-10-10 4.477-10 10-10Zm4.442 6c-.381.007-.966.207-3.779 1.363a487.12 487.12 0 0 0-5.907 2.512c-.48.188-.73.372-.753.552-.044.346.46.453 1.094.657.517.166 1.213.36 1.575.368.328.007.694-.127 1.098-.4 2.76-1.84 4.183-2.769 4.273-2.789.063-.014.15-.032.21.02.058.052.053.15.046.177-.05.211-2.641 2.538-2.79 2.691l-.072.072c-.55.543-1.105.898-.147 1.521.866.563 1.37.922 2.26 1.5.57.368 1.017.805 1.605.752.271-.025.55-.276.693-1.026.335-1.77.995-5.608 1.147-7.19a1.739 1.739 0 0 0-.017-.393.42.42 0 0 0-.144-.27c-.121-.098-.309-.118-.392-.117Z"/></svg>
